svg/girl_0510y_outline.svg

<svg width="48" height="48" viewBox="0 0 48 48" fill="none" xmlns="http://www.w3.org/2000/svg">
<path d="M12.6369 4.00193C8.40694 3.91423 6.88766 7.82258 8.55264 18.6697C9.52943 25.9427 2.78231 20.3717 4.76949 17.1478C2.97731 19.6947 4.36819 23.5977 7.92375 23.6017C11.8319 23.8737 9.20933 12.1698 11.8669 8.31387C13.8849 4.54142 18.0378 8.74157 18.9588 11.5858C15.9188 13.6728 14.1019 17.1208 14.1019 20.8067C14.1009 26.9876 19.1158 31.9976 25.3027 31.9976C31.4887 31.9976 36.5036 26.9876 36.5036 20.8067C36.5036 14.6258 31.4887 9.61486 25.3027 9.61486C23.3868 9.61696 21.5028 10.1099 19.8318 11.0468C18.7258 8.00168 17.1658 4.94052 14.6149 4.27532C13.9019 4.10833 13.2409 4.01443 12.6369 4.00193ZM25.3027 10.1309C30.1917 10.1339 34.4556 13.4528 35.6536 18.1887C32.6656 18.3687 30.8267 18.3897 28.6407 17.0468C27.7267 14.0388 25.8537 12.9088 24.9507 16.8538C20.3588 17.7628 20.1388 18.3587 15.6779 16.3398C15.6689 16.3358 15.6629 16.3318 15.6539 16.3278C15.6439 16.3228 15.6339 16.3198 15.6249 16.3158C17.3728 12.5498 21.1468 10.1369 25.3027 10.1309ZM26.5697 14.8848C27.1177 14.8488 27.6917 15.9038 28.1887 17.3028C30.2697 19.1627 33.5356 18.8217 35.7696 18.7087C35.9116 19.3987 35.9846 20.1017 35.9876 20.8067C35.9886 26.7026 31.2037 31.4826 25.3027 31.4816C19.4018 31.4816 14.6189 26.7016 14.6189 20.8067C14.6209 19.4267 14.8909 18.0598 15.4139 16.7828L15.4649 16.8068C20.2278 19.2487 22.2098 17.7028 25.3907 17.3028C25.7347 15.6008 26.1437 14.9128 26.5697 14.8848ZM21.5408 19.5347C20.9618 19.5357 20.4928 20.0047 20.4918 20.5837C20.4918 21.1637 20.9608 21.6337 21.5408 21.6347C22.1218 21.6347 22.5918 21.1647 22.5918 20.5837C22.5908 20.0037 22.1208 19.5347 21.5408 19.5347ZM29.1947 19.5347C28.6157 19.5357 28.1467 20.0047 28.1457 20.5837C28.1457 21.1637 28.6157 21.6337 29.1947 21.6347C29.7757 21.6347 30.2467 21.1647 30.2457 20.5837C30.2457 20.0037 29.7747 19.5347 29.1947 19.5347ZM21.9688 25.1817C21.7958 25.1967 21.6388 25.3667 21.6618 25.6427C21.8038 27.0266 23.4178 28.0976 25.3607 28.0996C27.3057 28.0986 28.9197 27.0276 29.0617 25.6427C28.2427 26.7996 26.9617 27.5566 25.3607 27.5896C23.8117 27.5886 22.5188 26.7436 22.3788 25.6427C22.3318 25.3037 22.1418 25.1657 21.9688 25.1817ZM7.70095 35.3455C6.92586 35.3455 6.33137 35.6025 5.91777 36.1165C5.50738 36.6315 5.30248 37.3855 5.30248 38.3785V39.6875C5.31228 40.6415 5.52298 41.3745 5.93337 41.8865C6.34367 42.3974 6.93556 42.6534 7.71065 42.6534C8.49554 42.6534 9.09263 42.3914 9.49973 41.8705C9.90682 41.3495 10.1087 40.5985 10.1087 39.6145V38.3065C10.0997 37.3515 9.89052 36.6185 9.48023 36.1105C9.06983 35.5995 8.47604 35.3455 7.70095 35.3455ZM28.8237 35.3455C28.0487 35.3455 27.4547 35.6025 27.0407 36.1165C26.6307 36.6315 26.4257 37.3855 26.4257 38.3785V39.6875C26.4357 40.6415 26.6457 41.3745 27.0567 41.8865C27.4667 42.3974 28.0587 42.6534 28.8337 42.6534C29.6187 42.6534 30.2157 42.3914 30.6227 41.8705C31.0297 41.3495 31.2317 40.5985 31.2317 39.6145V38.3065C31.2227 37.3515 31.0137 36.6185 30.6037 36.1105C30.1927 35.5995 29.5987 35.3455 28.8237 35.3455ZM23.9787 35.4335L21.0328 36.4875V37.6365L22.7188 37.1125V42.5564H24.1307V35.4335H23.9787ZM11.6879 35.4425L11.2769 39.0585L12.3999 39.3355L12.5369 39.2085C12.7459 39.0325 13.0179 38.9445 13.3539 38.9445C13.7179 38.9445 14.0009 39.0525 14.1989 39.2675C14.3979 39.4825 14.4959 39.7905 14.4959 40.1945C14.4959 40.6145 14.4109 40.9425 14.2379 41.1735C14.0659 41.4015 13.8189 41.5155 13.4999 41.5155C13.2129 41.5155 12.9799 41.4335 12.8009 41.2705C12.6249 41.1045 12.5229 40.8735 12.4939 40.5775H11.0959C11.1089 40.9815 11.2219 41.3395 11.4339 41.6555C11.6489 41.9715 11.9409 42.2184 12.3089 42.3944C12.6769 42.5664 13.0759 42.6534 13.5059 42.6534C13.9979 42.6534 14.4239 42.5534 14.7849 42.3544C15.1469 42.1534 15.4229 41.8705 15.6149 41.5095C15.8108 41.1445 15.9078 40.7325 15.9078 40.2725C15.9078 39.5175 15.7159 38.9315 15.3319 38.5115C14.9479 38.0915 14.4179 37.8805 13.7399 37.8805C13.3619 37.8805 13.0049 37.9685 12.6699 38.1475L12.8459 36.6205H15.6739V35.4425H11.6879ZM31.7167 35.4425L34.0526 39.9765V42.5564H35.5406V39.9765L37.8766 35.4425H36.2746L34.7946 38.6475L33.3236 35.4425H31.7167ZM7.70095 36.4875C8.04285 36.4875 8.29324 36.6235 8.45284 36.8945C8.61574 37.1615 8.69704 37.5875 8.69704 38.1775V39.8685C8.69054 40.4255 8.61184 40.8385 8.45874 41.1085C8.30564 41.3795 8.05595 41.5155 7.71065 41.5155C7.36226 41.5155 7.10856 41.3755 6.94896 41.0955C6.79266 40.8115 6.71456 40.3795 6.71456 39.8005V38.0695C6.72436 37.5255 6.80636 37.1285 6.96266 36.8745C7.12226 36.6175 7.36876 36.4875 7.70095 36.4875ZM28.8237 36.4875C29.1657 36.4875 29.4167 36.6235 29.5757 36.8945C29.7387 37.1615 29.8217 37.5875 29.8217 38.1775V39.8685C29.8157 40.4255 29.7347 40.8385 29.5817 41.1085C29.4287 41.3795 29.1787 41.5155 28.8337 41.5155C28.4857 41.5155 28.2317 41.3755 28.0717 41.0955C27.9157 40.8115 27.8377 40.3795 27.8377 39.8005V38.0695C27.8477 37.5255 27.9317 37.1285 28.0877 36.8745C28.2467 36.6175 28.4917 36.4875 28.8237 36.4875ZM40.1775 37.1715C39.5486 37.1715 39.0386 37.3305 38.6476 37.6455C38.2606 37.9585 38.0676 38.3485 38.0676 38.8175C38.0676 39.6225 38.6956 40.1575 39.9525 40.4215C40.3305 40.4995 40.6035 40.5875 40.7725 40.6885C40.9455 40.7865 41.0325 40.9225 41.0325 41.0955C41.0325 41.2615 40.9615 41.3955 40.8215 41.4995C40.6845 41.6005 40.4825 41.6515 40.2125 41.6515C39.9225 41.6515 39.6895 41.5845 39.5176 41.4505C39.3446 41.3175 39.2526 41.1255 39.2396 40.8745H37.8996C37.8996 41.1935 37.9996 41.4925 38.1946 41.7695C38.3906 42.0425 38.6576 42.2594 38.9996 42.4194C39.3446 42.5754 39.7405 42.6534 40.1835 42.6534C40.8375 42.6534 41.3715 42.5044 41.7845 42.2084C42.1985 41.9085 42.4055 41.5185 42.4055 41.0365C42.4055 40.3625 42.0325 39.8885 41.2865 39.6145C41.0455 39.5265 40.7495 39.4485 40.3975 39.3805C40.0465 39.3085 39.7935 39.2245 39.6446 39.1305C39.4976 39.0325 39.4256 38.9055 39.4256 38.7495C39.4256 38.5835 39.4905 38.4465 39.6205 38.3395C39.7505 38.2315 39.9355 38.1775 40.1735 38.1775C40.4505 38.1775 40.6525 38.2445 40.7825 38.3785C40.9125 38.5085 40.9785 38.6745 40.9785 38.8765H42.3905C42.3905 38.3715 42.1885 37.9615 41.7845 37.6455C41.3845 37.3305 40.8485 37.1715 40.1775 37.1715ZM16.8648 38.9405V40.0775H19.6168V38.9405H16.8648Z" fill="#333333"/>
</svg>

<?xml version="1.0" encoding="UTF-8" standalone="no"?>
<!-- Created with Inkscape (http://www.inkscape.org/) -->
<svg id="svg8" xmlns:rdf="http://www.w3.org/1999/02/22-rdf-syntax-ns#" xmlns="http://www.w3.org/2000/svg" xmlns:osb="http://www.openswatchbook.org/uri/2009/osb" height="48" viewBox="0 0 12.7 12.7" width="48" version="1.1" xmlns:cc="http://creativecommons.org/ns#" xmlns:dc="http://purl.org/dc/elements/1.1/">
 <title id="title4753">UIO-icon</title>
 <metadata id="metadata5">
  <rdf:RDF>
   <cc:Work rdf:about="">
    <dc:format>image/svg+xml</dc:format>
    <dc:type rdf:resource="http://purl.org/dc/dcmitype/StillImage"/>
    <dc:title>UIO-icon</dc:title>
    <dc:creator>
     <cc:Agent>
      <dc:title>Joaquín Urbano</dc:title>
     </cc:Agent>
    </dc:creator>
    <dc:rights>
     <cc:Agent>
      <dc:title>GPL</dc:title>
     </cc:Agent>
    </dc:rights>
   </cc:Work>
  </rdf:RDF>
 </metadata>
 <path id="text4858" d="m12.637 4.002c-4.23-0.0877-5.7493 3.8207-4.0843 14.668 0.9768 7.273-5.7704 1.702-3.7832-1.522-1.7922 2.547-0.4013 6.45 3.1543 6.454 3.9082 0.272 1.2856-11.432 3.9432-15.288 2.018-3.7725 6.171 0.4277 7.092 3.272-3.04 2.087-4.857 5.535-4.857 9.221-0.001 6.181 5.014 11.191 11.201 11.191 6.186 0 11.201-5.01 11.201-11.191s-5.015-11.192-11.201-11.192c-1.916 0.0021-3.8 0.495-5.471 1.432-1.106-3.0452-2.666-6.1064-5.217-6.7716-0.713-0.167-1.374-0.2609-1.978-0.2734zm12.666 6.129c4.889 0.003 9.153 3.322 10.351 8.058-2.988 0.18-4.827 0.201-7.013-1.142-0.914-3.008-2.787-4.138-3.69-0.193-4.592 0.909-4.812 1.505-9.273-0.514-0.009-0.004-0.015-0.008-0.024-0.012-0.01-0.005-0.02-0.008-0.029-0.012 1.748-3.766 5.522-6.179 9.678-6.185zm1.267 4.754c0.548-0.036 1.122 1.019 1.619 2.418 2.081 1.86 5.347 1.519 7.581 1.406 0.142 0.69 0.215 1.393 0.218 2.098 0.001 5.896-4.784 10.676-10.685 10.675-5.901 0-10.684-4.78-10.684-10.675 0.002-1.38 0.272-2.747 0.795-4.024l0.051 0.024c4.763 2.442 6.745 0.896 9.926 0.496 0.344-1.702 0.753-2.39 1.179-2.418zm-5.029 4.65c-0.579 0.001-1.048 0.47-1.049 1.049 0 0.58 0.469 1.05 1.049 1.051 0.581 0 1.051-0.47 1.051-1.051-0.001-0.58-0.471-1.049-1.051-1.049zm7.654 0c-0.579 0.001-1.048 0.47-1.049 1.049 0 0.58 0.47 1.05 1.049 1.051 0.581 0 1.052-0.47 1.051-1.051 0-0.58-0.471-1.049-1.051-1.049zm-7.226 5.647c-0.173 0.015-0.33 0.185-0.307 0.461 0.142 1.384 1.756 2.455 3.699 2.457 1.945-0.001 3.559-1.072 3.701-2.457-0.819 1.157-2.1 1.914-3.701 1.947-1.549-0.001-2.842-0.846-2.982-1.947-0.047-0.339-0.237-0.477-0.41-0.461zm-14.268 10.164c-0.7751 0-1.3696 0.257-1.7832 0.771-0.4104 0.515-0.6153 1.269-0.6153 2.262v1.309c0.0098 0.954 0.2205 1.687 0.6309 2.199 0.4103 0.511 1.0022 0.767 1.7773 0.767 0.7849 0 1.382-0.262 1.7891-0.783s0.609-1.272 0.609-2.256v-1.308c-0.009-0.955-0.2182-1.688-0.6285-2.196-0.4104-0.511-1.0042-0.765-1.7793-0.765zm21.123 0c-0.775 0-1.369 0.257-1.783 0.771-0.41 0.515-0.615 1.269-0.615 2.262v1.309c0.01 0.954 0.22 1.687 0.631 2.199 0.41 0.511 1.002 0.767 1.777 0.767 0.785 0 1.382-0.262 1.789-0.783s0.609-1.272 0.609-2.256v-1.308c-0.009-0.955-0.218-1.688-0.628-2.196-0.411-0.511-1.005-0.765-1.78-0.765zm-4.845 0.088l-2.946 1.054v1.149l1.686-0.524v5.444h1.412v-7.123h-0.152zm-12.291 0.009l-0.411 3.616 1.123 0.277 0.137-0.127c0.209-0.176 0.481-0.264 0.817-0.264 0.364 0 0.647 0.108 0.845 0.323 0.199 0.215 0.297 0.523 0.297 0.927 0 0.42-0.085 0.748-0.258 0.979-0.172 0.228-0.419 0.342-0.738 0.342-0.287 0-0.52-0.082-0.699-0.245-0.176-0.166-0.278-0.397-0.307-0.693h-1.398c0.013 0.404 0.126 0.762 0.338 1.078 0.215 0.316 0.507 0.563 0.875 0.739 0.368 0.172 0.767 0.259 1.197 0.259 0.492 0 0.918-0.1 1.279-0.299 0.362-0.201 0.638-0.484 0.83-0.845 0.196-0.365 0.293-0.777 0.293-1.237 0-0.755-0.192-1.341-0.576-1.761s-0.914-0.631-1.592-0.631c-0.378 0-0.735 0.088-1.07 0.267l0.176-1.527h2.828v-1.178h-3.986zm20.029 0l2.336 4.534v2.58h1.488v-2.58l2.336-4.534h-1.602l-1.48 3.205-1.471-3.205h-1.607zm-24.016 1.045c0.3419 0 0.5923 0.136 0.7519 0.407 0.1629 0.267 0.2442 0.693 0.2442 1.283v1.691c-0.0065 0.557-0.0852 0.97-0.2383 1.24-0.1531 0.271-0.4028 0.407-0.7481 0.407-0.3484 0-0.6021-0.14-0.7617-0.42-0.1563-0.284-0.2344-0.716-0.2344-1.295v-1.731c0.0098-0.544 0.0918-0.941 0.2481-1.195 0.1596-0.257 0.4061-0.387 0.7383-0.387zm21.123 0c0.342 0 0.593 0.136 0.752 0.407 0.163 0.267 0.246 0.693 0.246 1.283v1.691c-0.006 0.557-0.087 0.97-0.24 1.24-0.153 0.271-0.403 0.407-0.748 0.407-0.348 0-0.602-0.14-0.762-0.42-0.156-0.284-0.234-0.716-0.234-1.295v-1.731c0.01-0.544 0.094-0.941 0.25-1.195 0.159-0.257 0.404-0.387 0.736-0.387zm11.354 0.684c-0.629 0-1.139 0.159-1.53 0.474-0.387 0.313-0.58 0.703-0.58 1.172 0 0.805 0.628 1.34 1.885 1.604 0.378 0.078 0.651 0.166 0.82 0.267 0.173 0.098 0.26 0.234 0.26 0.407 0 0.166-0.071 0.3-0.211 0.404-0.137 0.101-0.339 0.152-0.609 0.152-0.29 0-0.523-0.067-0.695-0.201-0.173-0.133-0.265-0.325-0.278-0.576h-1.34c0 0.319 0.1 0.618 0.295 0.895 0.196 0.273 0.463 0.49 0.805 0.65 0.345 0.156 0.741 0.234 1.184 0.234 0.654 0 1.188-0.149 1.601-0.445 0.414-0.3 0.621-0.69 0.621-1.172 0-0.674-0.373-1.148-1.119-1.422-0.241-0.088-0.537-0.166-0.889-0.234-0.351-0.072-0.604-0.156-0.753-0.25-0.147-0.098-0.219-0.225-0.219-0.381 0-0.166 0.065-0.303 0.195-0.41 0.13-0.108 0.315-0.162 0.553-0.162 0.277 0 0.479 0.067 0.609 0.201 0.13 0.13 0.196 0.296 0.196 0.498h1.412c0-0.505-0.202-0.915-0.606-1.231-0.4-0.315-0.936-0.474-1.607-0.474zm-23.313 1.769v1.137h2.752v-1.137h-2.752z" transform="scale(.26458)" stroke-width=".99999" fill="#333"/>
</svg>
